X:1
T:Trio Sonata in C-minor
T:Trio Sonata in C-minor
T: François Couperin (1668 — 1733) Arr. by : Frederick F. Polnauer
T: for 2 Violins & Basso continuo Transcribed for Recorder, Traverso and Continuo in d-minor from IMSLP#412913 PDF File
T:Public Domain - Non-PD US
T:Public Domain - Non-PD US
T:Public Domain - Non-PD US
T:Public Domain - Non-PD US
T:Public Domain - Non-PD US
T:Public Domain - Non-PD US
T:Public Domain - Non-PD US
C:François Couperin (1668 — 1733)
Z:Public Domain - Non-PD US
%%score [ 1 2 ( 3 4 ) ] { ( 5 6 8 ) | ( 7 9 ) }
L:1/8
Q:1/4=120
M:4/4
K:F
V:1 treble nm="Alto Recorder" snm="A. Rec."
V:2 treble nm="Traverso" snm="Trv."
V:3 bass nm="Viola da gamba" snm="Vla. d. g."
V:4 bass 
V:5 treble nm="Harpsichord" snm="Hch."
V:6 treble 
V:8 treble 
V:7 bass 
V:9 bass 
V:1
"^Gravement" z2 a2 g2 a2 | f2 f2 e2 f2 | d2 a2 b2 a2 | g2 f2 e2 f2 | d2 z2 z4 | z2 c2 B2 c2 | %6
 A2 A2 G2 A2 | F2 a2 g2 a2 | f4 f4 | g2 b2 a2 b2 | g2 g2 f2 g2 | e4 z4 | a4 z4 | z2 a2 g2 b2 | %14
 e2 f2 Te3 d | d2 z2 z4 | z2 a2 g2 b2 | e2 f2 Te3 d || %18
[M:4/4]"^Légèrement (Allegro model-aw)" d z z2 z4 | z8 | z dab c'b/a/ gb | ag/f/ eg f>g Tg>a | %22
 a2 z2 z4 | z daa ba/g/ fa | gd aa b>a a>g | g z z2 z4 | z/ f/g/a/ b/c'/b/a/ g/e/f/g/ a/b/a/g/ | %27
 f3 f ga g>f | f2 z2 z/ d/e/f/ g/a/g/f/ | e/^c/d/e/ f/g/f/e/ dc/B/ Ac | de/f/ e/f/g/e/ f2 f>f | %31
 g2 ^g>g a2 z2 | z/ =B/c/d/ e/f/e/d/ ce a=b | c'=b/a/ ^gb a2 Ta>g | a2 z2 z4 | z8 | %36
 z dab c'b/a/ gb | a2 Tf2 g2 Te2 | fa aa g3 g | g2 f>f f2 e>e | e2 d4 ^c2 | %41
 d/f/g/a/ b/c'/b/a/ g/e/f/g/ a/b/a/g/ | f/f/g/a/ b/a/g/f/ ef Te>d || %43
[M:6/4]"^Air Légèrement (Moderato)" d6 z4 z2 | z12 | z12 | z12 | z12 | z12 | z12 | z12 | z12 | %52
 z12 | z12 | z12 | z12 | z12 | z12 | z12 | z12 | z12 | z12 | z12 | z12 | z12 | z12 | z12 |] %67
[M:4/4]"^Légèrement (Allegro moderato)" z8 | z2 z/ a/g/f/ efga | fd aa (a2 T^g2) | a2 z f f2 e>e | %71
 eA dd (d2 T^c2) | d2 z/ a/a/b/ =c'c'c'a | bb z/ b/a/g/ fgab | g2 z/ g/f/e/ defg | %75
 ec z/ c'/b/a/ gabc' | ac ff (f2 Te2) | f2 z/ g/f/e/ defg | ec gg (g2 Tf2) | g/g/=f/e/ de f2 f>g | %80
 ee aa (a2 Tg2) | a2 z/ a/g/f/ efga | fd z/ a/g/f/ e/d/c z/ g/f/e/ | %83
 d/c/B z/ f/e/d/ ^c/^B/A z/ e/d/=c/ | B2 Bc/d/ ^cd Tc>d | d f b4 a2 | a2 g4 f2- | f2 e>e ef e>d | %88
 !fermata!d8 |][M:6/4]"^Lentement" !fermata!e12 | %90
 z2[Q:1/4=120]"^Gayement (  ) (Allegro moderate)" a2 e2 f2 e2 d2 | ^c4 c2 d2 e2 f2 | %92
 e4 z4 a2 e2 | f4 e2 Te4 d2 | z12 | a12 | z2 d'2 a2 b2 a2 g2 | ^f4 f2 g2 a2 b2 | a2 z4 z2 d'2 a2 | %99
 b4 a2 Ta4 g2 | g4 z8 | z8 c'2 g2 | a2 b2 c'2 ba Tg3 f | f2 c'2 c2 f6 | z2 d'2 d2 g6 | %105
 z2 a2 A2 d6- | d4 d2 T^c4 d2 | d2 a2 A2 d6- | d4 d2 ^c4 d2 |] %109
[M:2/2]"^Air tendrement (Allegretto)" d4 a3 g | f2 e2 Te3 d | T^c2 A2 a3 b/=c'/ | b2 a2 Tg3 f | %113
 e4 a3 g | f2 e2 Te3 d | ^c2 A2 (a3 b/c'/) | b2 a2 Tg3 f | e4 e3 f | d2 d2 g3 g | Tg2 f2 b3 c' | %120
 Ta3 g Tg3 f | f4 a3 a | a2 d2 g3 g | Tg2 f2 f3 f | f2 e2 Te3 e | e4{ef} g3 a | ae f2 Te3 d | %127
 d4 a3 a | a2 d2 g3 g | (Tg2 f2) f3 f | f2 e2 Te3 e | e4{ef} g3 a | ae f2 Te3 d |] %133
[M:6/4][Q:1/4=90]"^Légèrement (Allegro moderato \n)\n" d6 z4 z2 | z12 | z12 | z12 | z12 | z12 | %139
 z12 | z12 | z4 z2 a6 | g6 f6 | e6 c6 | d6 e6 | Tc3 =B A2 z2 ABcd | e2 =B2 e2 A4 A2 | %147
 A4 ^G2 A4 z2 | A2 A2 d2 T^G6 | A2 A=Bcd e2 A2 e2 | fefgfe d2 defg | a2 e2 a2 d2 d2 g2 | %152
 fefgfe d^cdefd | efgfed ^cdcA=Bc | d4 d2 z4 z2 | z2 a=bc'a d'2 g2 e2 | a2 A=B^cA fgagfe | %157
 d2 gagf Te3 e a2 | d4 d2 z4 z2 | z12 | z2 defg a2 e2 a2 | fefgaf bc'bagf | efedcB A2 f4 | %163
 d2 g4 e2 a4 | f2 b4 g2 c'4 | ^f2 defg a2 b2 ag | ^fefgaf gfga g2 | ^f2 fgab c'babc'a | %168
 bagbag ^fe dcBA | B2 g4- g2 T^f3 g | g6 z4 z2 | z2 defd g2 =B2 e2 | T^c6 a6 | g6 f6 | e6 ^c6 | %175
 d6 e6 | A6 z4 z2 | z2 abc'a d'2 g2 e2 | a2 A=B^cA fgagfe | d2 gagf e3 e f2 | d4 z8 | z12 | %182
 z2 defg a2 e2 a2 | ^f12 |] %184
V:2
 z2 f2 e2 e2- | e2 d4 ^c2 | d2 f2 e2 f2 | ^c2 d4 c2 | d2 z2 z4 | z2 A2 G2 G2- | G2 F4 E2 | %7
 F2 f2 e2 f2 | d2 d2 c2 d2 | B2 g2 f2 g2 | e2 e2 d2 e2 | ^c4 z4 | f4 z4 | z2 f2 e2 g2 | %14
 ^c2 d2 Tc3 d | d2 z2 z4 | z2 f2 e2 g2 | ^c2 d2 Tc3 d ||[M:4/4] d z z2 z4 | z Ade fe/d/ ^ce | %20
 d2 fg ag/f/ eg | fe/d/ ^ce d>e e>d | ^cA de fe/d/ ce | d2 z2 z daa | ba/g/ fa g2 Tf2 | %25
 g/d/e/f/ g/a/g/f/ e/c/d/e/ f/g/f/e/ | d/d/e/f/ g/a/g/f/ e/c/d/e/ f/g/f/e/ | d3 d ef e>f | %28
 f/A/B/c/ d/e/d/c/ B/B/^c/d/ e/f/e/d/ | ^c z4 Aee | fe/d/ ^ce d2 z2 | z4 z eab | %32
 c'=b/a/ ^gb a2 z2 | z/ =B/c/d/ e/f/e/d/ c/e/d/c/ B>e | ^cAde fe/d/ ce | defg ag/f/ e/f/g/e/ | %36
 fd/e/ fg ag/f/ eg | f2 d2 e2 ^c2 | df ff e2 z d | ^c/A/=B/c/ d/e/d/=c/ B/G/A/B/ c/d/c/_B/ | %40
 A2- A/F/G/A/ B/A/G/F/ E>D | D/d/e/f/ g/a/g/f/ e/c/d/e/ f/g/f/e/ | d/d/e/f/ g/f/e/d/ ^cd c>d || %43
[M:6/4] d6 z4 z2 | z12 | z4 d2 a3 b a2 | g4 e2 g3 a g2 | f4 f2 b3 c' b2 | b4 a2 a3 b Tg2 | a4 z8 | %50
 z12 | z4 d2 a3 b a2 | g4 e2 g3 a g2 | f4 f2 b3 c' b2 | b4 a2 a3 b g2 | a4 a2 c'3 d' c'2 | %56
 c'4 g2 b3 c' b2 | b4 f2 a3 b a2 | g3 a f2 f3 g e2 | f4 f2 a3 b a2 | a4 d2 g3 a g2 | %61
 g3 f e2 a3 b a2 | g3 a f2 e4 d2 | d4 f2 b3 c' a2 | a4 e2 a3 b g2 | a4 d2 g3 a g2 | %66
 g3 a f2 Te4 d2 |][M:4/4] d2 z4 z2 | z Add d2 ^c2 | d2 z4 z2 | z2 z/ e/d/c/ =Bcde | %71
 ^c2 a/g/f/e/ efga | fd z/ f/f/g/ aaa^f | gg z/ g/f/e/ defg | e2 z4 z2 | z cff (f2 e2) | %76
 f2 z/ c'/b/a/ gaTg>f | fF cc (c2 TB2) | c2 z4 z2 | z4 z/ d/c/B/ AB | c3 A de/f/ e>d | %81
 T^cA dd (d2 Tc2) | d2 b4 a2 | a2 g2 g2 f2 | f2 e>e ef e>d | d2 z/ a/g/f/ e/d/c z/ g/f/e/ | %86
 d/c/B z/ f/e/d/ ^c/B/A z/ e/d/=c/ | B2 Bc/d/ ^cd c>d | !fermata!d8 |][M:6/4] !fermata!^c12 | z12 | %91
 z2 a2 e2 f2 e2 d2 | ^c2 a2 e2 f2 g2 c2 | d4 d2 ^c4 d2 | d6 z6 | ^f12 | z12 | z2 d'2 a2 b2 a2 g2 | %98
 ^f2 d'2 a2 b2 b2 f2 | g4 g2 ^f4 g2 | g4 z4 g2 d2 | e6 z2 f2 e2 | f4 f2 f2 Te3 f | f6 z2 a2 A2 | %104
 d6 z2 e2 =B2 | ^c6 z2 d'2 d2 | g3 a f2 e4 d2 | d4 z4 d'2 d2 | g3 a f2 e4 d2 |][M:2/2] d4 z4 | z8 | %111
 z8 | z8 | z8 | z8 | z8 | z8 | z8 | z8 | z8 | z8 | z8 | z8 | z8 | z8 | z8 | z8 | z8 | z8 | z8 | %130
 z8 | z8 | z8 |][M:6/4] z12 | z12 | z12 | z12 | z4 z2 d6 | c4 z2 B6 | A6 F6 | G6 A6 | %141
 F3 E D2 z2 ABcd | e2 =B2 e2 A2 A2 d2 | c=BcdcB A6 | =BABcBc A^GABAG | A4 A2 z4 z2 | z8 A=Bcd | %147
 e2 =B2 e2 A2 e2 a2 | f4 z4 =B2 e2 | A6 z4 z2 | z4 z2 d'6 | c'6 b6 | a6 f6 | g6 a6 | %154
 f3 d d2 z2 defg | a2 e2 a2 d2 d2 g2 | ^c2 c2 e2 A2 A2 d2 | =B2 B2 e2 ^c3 B c2 | d2 defg a2 e2 a2 | %159
 f2 A3 B c2 ^c3 c | d4 de ^c=Bcdec | d6 z4 z2 | z12 | z12 | z12 | z4 z2 d'6 | c'6 b6 | a6 ^f6 | %168
 g6 a6 | B2 b4 a2 a3 g | g2 GABc d2 A2 d2 | B6 z4 z2 | z8 A=B^cd | e6- e2 d4 | ^c2 A=BcA e2 efge | %175
 a6 g6 | f3 e d2 z2 defg | a2 e2 a2 d2 d2 g2 | ^c2 c2 e2 A2 A2 d2 | =B2 B2 e2 ^c3 B c2 | d4 z8 | %181
 z2 defg a2 e2 a2 | f4 d2 d4 ^c2 | !fermata!d12 |] %184
V:3
 D,2 D4 ^C2 | D2 F,2 G,2 A,2 | B,2 F,2 G,2 A,2 | B,2 G,2 A,2 A,,2 | D,2 A2 G2 A2 | F4 z2 E2 | %6
 F2 A,2 B,2 C2 | F,2 z2 z4 | z2 B,2 A,2 B,2 | G,8- | G,8 | A,2 A,2 G,2 A,2 | F,2 D2 C2 D2 | (G,8 | %14
 G,2) F,G, A,2 A,,2 | D,2 D2 C2 D2 | G,8- | G,2 F,G, A,2 A,,2 ||[M:4/4] D,A,DE FE/D/ CE | %19
 D2 B,2 F,G, A,A,, | D,2 D2 A,B, CC, | F,G, A,A,, D,=C, B,,2 | A,,A,,/G,,/ F,,E,, D,,D, A,A, | %23
 B, A,/G,/ F,A, G,F,/E,/ D,2 | G,F,/E,/ D,2 G,C, D,2 | G,2 G,,2 C,2 A,,2 | B,,2 G,,2 C,2 A,,2 | %27
 B,,/F,/G,/A,/ B,/C/B,/A,/ G,F, CC, | F,2 F,2 G,2 E,2 | A,A, DE FE/D/ ^CD | %30
 D2 A,2 D,/A,/B,/C/ D/E/D/C/ | B,/B,/C/D/ E/F/E/D/ C/C,/D,/E,/ F,/E,/F,/D,/ | %32
 A,G,/F,/ E,2 A,2 F,D, | A,=G,/F,/ E,^G,, A,,D, E,2 | %34
 A,,A,,/=G,,/ F,,E,, D,,/E,/F,/G,/ A,/B,/A,/G,/ | F,A,DE FE/D/ ^CE | D2- D/D/C/B,/ A,B, C2 | %37
 F,/F,/G,/A,/ B,/C/B,/A,/ G,/E,/F,/G,/ A,/B,/A,/G,/ | F,D, A,B, CB,/A,/ G,B, | %39
 A,2 z/ D,/E,/F,/ G,2 z/ C,/D,/E,/ | F,/F,/G,/A,/ B,/C/!tenuto!B,/A,/ G,/A,/B,/G,/ A,A,, | %41
 D,2 G,,/G,/A,/B,/ C2 z/ F,/G,/A,/ | B,/C/B,/A,/ G,/A,/B,/G,/ A,D, A,,2 || %43
[M:6/4] D,4 D,2 A,3 B, A,2 | G,4 E,2 G,3 A, G,2 | F,4 D,2 F,3 G, F,2 | E,6 A,6 | D,6 D6 | C6 B,6 | %49
 A,4 D,2 A,3 B, A,2 | G,4 E,2 G,3 A, G,2 | F,4 D,2 F,3 G, F,2 | E,6 A,6 | D,6 D6 | C6 B,6 | %55
 A,6 F,6 | G,6 E,6 | F,6 F,,6 | B,,6 C,6 | F,,6 F,6 | B,6 E,6 | A,6 F,6 | G,6 A,6 | D,6 D6 | %64
 ^C6 =C6 | B,6 B,6 | A,4 D,2 A,,6 |][M:4/4] D,A,DD D2 ^C2 | D2 B,2 G,2 A,2 | D,2 z/ E/D/C/ =B,CDE | %70
 CE, A,A, (A,2 ^G,2) | A,2 F,2 G,2 A,2 | D,2 z/ D/C/B,/ A,B,CD | B,G, A,2 B,/B,/A,/G,/ F,B,, | %74
 C,G, CC C2 B,2 | C2 A,2 B,2 C2 | F2 A,2 B,2 C2 | F,2 E,2 F,2 G,2 | C2 z/ D/C/B,/ A,B,CD | %79
 B,G, B,C D4 | C4 B,4 | A,2 F,2 G,2 A,2 | D/C/B,/A,/ G,/F,/E,/D,/ C/B,/A,/G,/ F,/E,/D,/C,/ | %83
 B,,4 A,,4 | G,,2 ^G,,2 A,,D, A,2 | D/C/B,/A,/ G,/F,/E,/D,/ C/B,/A,/G,/ F,/E,/D,/C,/ | %86
 B,/A,/G,/F,/ E,/D,/C,/B,,/ A,/G,/F,/E,/ D,/C,/B,,/A,,/ | G,,2 ^G,,2 A,,D, A,,2 | !fermata!D,8 |] %89
[M:6/4] !fermata!A,12 | A,12- | A,12- | A,12 | D4 G,2 A,4 A,,2 | D,6 z6 | D12 | D,12 | D,12- | %98
 D,12 | G,4 C,2 D,4 G,2 | G,2 G,2 D,2 E,4 =B,,2 | C,2 C2 G,2 A,2 A,2 C2 | F,2 G,2 A,2 B,2 C2 C,2 | %103
 F,6 z2 F2 F,2 | z8 G2 G,2 | A,6 F,2 F2 F,2 | B,4 G,2 A,4 A,,2 | D,6 F,2 F2 F,2 | %108
 B,4 G,2 A,4 A,,2 |][M:2/2] D,4 D2 ^C2 | D2 G,A, B,2 G,2 | A,3 G, F,4 | G,2 A,2 B,2 G,2 | %113
 A,G,A,E, F,2 ^C,2 | D,2 G,A, B,2 G,2 | A,3 G, F,4 | G,2 A,2 B,2 G,2 | A,2 A,B, C4 | B,4 B,4 | %119
 A,4 G,4 | F,2 B,2 C2 C,2 | F,4 F,F,G,A, | B,4 E,E,F,G, | A,4 D,D,E,F, | G,4 ^G,4 | A,4 B,4 | %126
 A,2 G,2 A,2 A,,2 | D,^C,D,E, F,F,G,A, | B,4 E,E,F,G, | A,4 D,D,E,F, | G,4 ^G,4 | A,4 B,4 | %132
 A,2 G,2 A,2 A,,2 |][M:6/4] D,6 D6 | C6 B,6 | A,6 F,6 | G,6 A,6 | F,3 E, D,2[K:treble] z2 DEFG | %138
 A2 E2 A2 GFEFGE | FEFGF!tenuto!E DEDCB,A, |[K:bass] G,A,G,F,E,D, ^C,=B,,C,A,,B,,C, | %141
 D,4 D,E, F,6 | E,4 ^C,2 D,2 D,E,F,G, | A,4 A,,2 F,E,F,G,F,E, | D,C,D,E,D,E, C,=B,,C,D,C,B,, | %145
 A,,6 A,6 | G,6 F,6 | E,6 C,6 | D,6 E,6 | C,3 =B,, A,,2 z2 A,=B,^CA, | D2 A,2 D2 B,6 | %151
 A,B,A,G,^F,D, G,F,G,A,B,G, | D2 D,E,F,D, B,A,B,CB,A, | G,F,E,F,G,E, F,E,F,G,F,E, | D,6 D6 | %155
 C6 B,6 | A,6 F,6 | G,6 A,6 | F,3 E, D,2 z2 A,=B,^CA, | D2 D,E,F,G, A,2 E,2 A,2 | F,4 D,2 A,,6 | %161
 D,2 DEFD G2 G,A,B,G, | C2 C,D,E,C, F,2 F,G,A,F, | B,2 G,A,B,G, C2 A,B,CA, | D2 B,CDB, _E2 CDEC | %165
 D4 z2 ^F,2 D,E,F,G, | A,G,A,B,CA, B,A,B,CB,C | D2 D,E,^F,G, A,2 D2 D,2 | G,6 D2 ^F,4 | %169
 G,2 G,A,B,C D2 A,2 D2 | B,A,B,CB,A, G,4 ^F,2 | G,6 E,6 | A,2 A,=B,^CA, F6 | %173
 ^C2 A,=B,CA, D2 D,E,F,D, | A,6 G,6 | F,A,G,F,E,D, ^C,=B,,C,A,,B,,C, | D,6 D6 | C6 B,6 | A,6 F,6 | %179
 G,6 A,6 | D,2[K:treble] DEFG A2 E2 A2 | F4 D2 A,6 |[K:bass] D,4 B,,2 B,,6 | !fermata!D,12 |] %184
V:4
 x8 | x8 | x8 | x8 | x8 | x8 | x8 | x8 | x8 | x8 | x8 | x8 | x8 | x8 | x8 | x8 | x8 | x8 || %18
[M:4/4] x8 | x8 | x8 | x8 | x8 | x8 | x8 | x8 | x8 | x8 | x8 | x8 | x8 | x8 | x8 | x8 | x8 | x8 | %36
 x8 | x8 | x8 | x8 | x8 | x8 | x8 ||[M:6/4] x12 | x12 | x12 | x12 | x12 | x12 | x12 | x12 | x12 | %52
 x12 | x12 | x12 | x12 | x12 | x12 | x12 | x12 | x12 | x12 | x12 | x12 | x12 | x12 | x12 |] %67
[M:4/4] x8 | x8 | x8 | x8 | x8 | x8 | x8 | x8 | x8 | x8 | x8 | x8 | x8 | x8 | x8 | D,4 C,4 | x8 | %84
 x8 | D,4 C,4 | B,,4 A,,4 | x8 | x8 |][M:6/4] x12 | x12 | x12 | x12 | x12 | x12 | x12 | x12 | x12 | %98
 x12 | x12 | x12 | x12 | x12 | x12 | x12 | x12 | x12 | x12 | x12 |][M:2/2] x8 | x8 | x8 | x8 | x8 | %114
 x8 | x8 | x8 | x8 | x8 | x8 | x8 | x8 | x8 | x8 | x8 | x8 | x8 | x8 | x8 | x8 | x8 | x8 | x8 |] %133
[M:6/4] x12 | x12 | x12 | x12 | x6[K:treble] x6 | x12 | x12 |[K:bass] x12 | x12 | x12 | x12 | x12 | %145
 x12 | x12 | x12 | x12 | x12 | x12 | x12 | x12 | x12 | x12 | x12 | x12 | x12 | x12 | x12 | x12 | %161
 x12 | x12 | x12 | x12 | x12 | x12 | x12 | x12 | x12 | x12 | x12 | x12 | x12 | x12 | x12 | x12 | %177
 x12 | x12 | x12 | x2[K:treble] x10 | x12 |[K:bass] x12 | x12 |] %184
V:5
 [Ad]4 [Be]2 e2- | e2 d2 [EBd]2 ^c2 | [Fd]2 [FAd]2 [EBe]2 [FAd]2 | ^c2 d4 c2 | %4
 [FAd]2 [cea]2 [Beb]2 [cea]2 | [cfa]4 [Bdg]2 [Gcg-]2 | g2 f2 d2 [EAc]2 | [FAc]2 z2 z4 | %8
 z2 [FBd]2 [Fc]2 [FBd]2 | [GBd]8 | e8 | [EA]6 [EAc]2 | [DAd]2 f2 e2 f2 | d4 [GBe]4 | %14
 [EA^c]2 [FAd]2 E4 | [FAd]2 f2 e2 f2 | [Bd]4 [GBe]4 | [EA^c]2 [FAd]2 [EAc]4 || %18
[M:4/4] [FAd]([EAc] [FAd])[Gcg] [Adf]2 [Ae][Gc] | [FAd]2 [FBd]2 [Gc][DGB] [^CEA]2 | %20
 [DFA]2 [FAd]2 [Acf]2 G2 | [FAf][EB] [^CEA]2 [DFA]2 [DEG]2 | [^CEA]2 [DAd][EG^c] [FAd]2 [Ec]2 | %23
 [Dd]2 [Ad][Fc] [GB]A d2 | [GBd]2 d4 d2 | [GBd]2 [GBd]2 [Gce]2 [Fcf]2 | %26
 [FBd]2 [GBd]2 [Gce]2 [Fcf]2 | [FBd]2 [FBd]2 [Be][Acf] [Gce]2 | [Acf]2 [Acd]2 [GBd]2 [GBe]2 | %29
 [Be]2 [Adf][G^c] [Ad]2 [Ae][Gc] | [FAd]2 [A^ce]2 [Adf]2 [Adf]2 | [Gdg]2 [Be^g]2 [Aea]2 [Acf][Ad] | %32
 [Ace]2 [^Gde]2 [Ace]2 d2 | [Ac]2 e2 [Ac][df] [Be]2 | [A^ce]2 [Ad][Gc] [FAd]2 [EAc][Ace] | %35
 d^c [Ad][Gc] [Ad]2 [Ae][Gcg] | [Adf]4 [Acf]2 [Gce]2 | [Acf]2 [FBd]2 [GBe]2 [EA^c]2 | %38
 [FAd][Adf] [Acf]2 [Gce]2 ed | ^c2 [FAd]2 [F=Bd]2 [EGc]2 | [Ac]2 d2 [Ed]2 [A^c]2 | %41
 d4 [EGc]2 [FAc]2 | [DFB]2 [GBe]2 ^cd [EAc]2 ||[M:6/4] [FAd]4 [Gdf]2 [A^ce]4 [Ace]2 | %44
 e4 g2 [A^ce]4 [Ace]2 | [Ada]4 [Adf]2 [Ad]4 d2- | d6 ^c6 | [FAd]6 [FBf]6 | [GBe]4 f2 d4 [EGd]2 | %49
 [EA^c]4 [FAd]2 [EAc]4 [Bd]2 | e4 g2 [A^ce]4 [Ace]2 | !arpeggio![Ada]4 [Adf]2 [Ad]4 d2- | d6 ^c6 | %53
 [FAd]6 [FBf]6 | [GBe]4 [FAf]2 [FAd]4 [EGd]2 | [EA^c]4 [Ace]2 [A=c-e]6 | c4 A2 [GB-g]6 | %57
 B4 A2 [FAc]6 | [Gd]6 [Gc]6 | [FAc]6 [A-cf]6 | [Adf]6 [Gdg]6 | [G^ce]6 [Ada]6 | [Bdg]6 [A^ce]6 | %63
 [FAd]6 [FBf]6 | [GBe]6 [FAf]6 | [FAd]6 [EGd]6 | [E^c]4 [DFd]2 [EAc]6 |] %67
[M:4/4] [FAd][A^ce] [Adf]2 [GBe]2 [GAe]2 | [FAd]2 [FBd]2 [EBd]2 [EA^c]2 | [FAd]2 z/ g/f/e/ dc B2 | %70
 [EAe]2 [Fc]2 [F=Bd]2 [EBe]2 | [EA^c]2 [DAd]2 [E_Bd]2 [EG^c]2 | [FAd]2 z/ f/e/d/ =cde[Ad] | %73
 d[Bd] [F^cf]2 [FBd]2 d2 | [EG^c]2 [Gce]2 [FAd]2 [Gd]2 | [Gd]2 [F^cf]2 [Gdf]2 [Gce]2 | %76
 [A^cf]2 [Fcf]2 [Gdf]2 [Gce]2 | [A^cf]2 [Gcg]2 [Acd]2 [FBd]2 | [EG^c]2 z/ B/c/d/ c2 [FAd]2 | %79
 dB/c/ dc/B/ [FA]4 | A4- A2 G2 | [^CEA]2 [DAd]2 [EBd]2 [EA^c]2 | [Fd]2 [B-d]2 [Bc]2 [Ac]2 | %83
 [FAd]2 [EGd]2 [EG^c]2 [Ad]2 | [Bd]4 [E=Ac][FAd] [EAc]2 | [Fd]2 [B-d]2 [Bc]2 [A-c]2 | %86
 [Ad]2 [EGe]2 [EG^c]2 [Ad]2 | [Bd]4 [EA^c][FAd] [EAc]2 | !fermata![FAd]8 |] %89
[M:6/4] !fermata![EA^c]12 | [EA^c]6 [FAd]6 | [^ce]6 [FAd]6 | [EA^c]6 [FAd]4 [GAc]2 | %93
 [FAd]4 [EBd]2 [EA^c]4 [Ace]2 | [Adf]6 z6 | [d^f]12 | d12 | d12 | [FAd]6 d6 | %99
 [GBd]4 [GA_e]2 [^FAd]4 [GBd]2 | [GBd]2 [Bdg]2 [Ad=f]2 [Ge]4 [Gd]2 | [EGc]2 [Gce]4 [Fcf]4 [Gce]2 | %102
 [Acf]4 [Fcf]2 [FGd]2 [EGc]4 | [FAc]6 z2 [Acf]4 | [FBd]6 z2 [_Be]4 | [A^ce]6 [Ad]6 | %106
 [Gd]4 [FBd]2 [EA^c]4 [Ace]2 | [Adf]6 [Ad]6 | [Gd]4 [Fd]2 [E^c]4 [EAc]2 |] %109
[M:2/2] [FAd]4 ([Adf]2 [GAe]2) | [FAd]2 e2 [Gde]2 [GBe]2 | [EA^c]4 [DA=c]4 | [DGB]4 [DEG]2 [DEB]2 | %113
 [^CEA]4 [DA]2 [EA]2 | [FA]2 Bc [EGd]2 [EBd]2 | [EA^c]4 [DA]4 | [DGB]4 [EGd]2 [Ge][Fd] | %117
 [EA^c]2 cd e4 | d4 d4 | c4 [EB]4 | [FAc]2 [FGd]2 [EGc]2 [EGc]2 | [FAc]4 d4 | d4 d4 | %123
 c2 [FAd]2 [FAd]4 | [FBd]4 [E^Bd]4 | [EA^c]4 [E^Gd]4 | [EA^c]2 [FBd]2 [EAc]4 | [FAd]4 d4 | d4 d4 | %129
 [A^c]2 [FAd]2 [FAd]4 | [FBd]4 [E=Bd]4 | [EA^c]4 [E^Gd]4 | [EA^c]2 [FBd]2 E4 |] %133
[M:6/4] [FAd]6 [Adf]6 | e6 d6 | [EA^c]6 [DAd]6 | [EBd]6 [EA^c]6 | [Ad]6 z2 [dfa]4 | [cea]6 bagabg | %139
 a6 a6 | [Bd]6 e3 ^cde | [Fd]4 d2 [Ad]6 | [GBe]4 [GAe]2 [FAd]2 [Fd]4 | [EA=c]4 [Ac]2 c6 | %144
 [F=B]6 [EA]4 [EA][D^GB] | [EAc]6 [Ace]6 | [=Be]6 e4- ed | [=Be]6 e6 | [FAd]6 [E^G=B]6 | %149
 [Ac]6 z2 ^cd e2 | [FAd]6 [Bd]6 | c3 BAB B3 AGB | [FA]2 [FAd]4 [FGBBd]4 z2 | [Be]6 A6 | %154
 [FAd]6 [Adf]6 | [Ae]6 d6 | [EA^c]6 [FAd]6 | [E=Bd]6 [EA^c]6 | [Dd]4 F2 z2 ^cdec | %159
 [FAd]2 [FAd]4 [EA=c]2 [EG^c]4 | [DAd]4 [FAd]2 [EA^c]6 | [FAd]4 [Ad]2 [Bd]2 g4 | %162
 [Gce]2 c4 [FAc]2 f4 | [FBd]2 Bc d2 c2 cd e2 | [FAd]2 de f2 [GB_e]2 ef g2 | [Ad^f]6 [Ad]2 d4 | %166
 [^Fc]4 z2 [Gd]6 | [^FAd]2 d4 [c^f]2 fgaf | [Bdg]6 ^fe [Acd]4 | d2 g4 g2 ^f4 | [Gdg]6 d2 d4 | %171
 [GBd]6 [G=Bc]6 | [EA^c]2 cdec [Ad]6 | [GAe]2 ^cd e2- e2 d4 | [EA^c]6 [Ace]6 | %175
 !arpeggio![Ad]6 [Ae]6 | [FAd]6 [Adf]6 | e6 d6 | [EA^c]6 [FAd]6 | [E=Bd]6 [EA^c]6 | %180
 [FAd]2 fgab [^cea]6 | [da]4 [Adf]2 [^ce]6 | [FAd]4 [DGd]2 [EAd]4 [EA^c]2 | !fermata!d12 |] %184
V:6
 F2 G4 [GA]2 | [FA]4 x2 F2 | x8 | [EG]2 [FB]2 [EA]2 F2 | x8 | x8 | [Ac]4 [FG]2 x2 | x8 | x8 | x8 | %10
 B8 | x8 | x2 [A-d]4 x2 | [AB]4 x4 | x8 | x2 [A-d]4 x2 | A4 x4 | x8 ||[M:4/4] x8 | x8 | x6 e2 | %21
 x8 | x6 AG | F>G D2 DD/E/ [FA]2 | x2 [FA]2 [GB]2 [FA]2 | x8 | x8 | x8 | x8 | x8 | x8 | x8 | %32
 x6 AF | E2 [^GB][EB] EA AG | x8 | A2 x6 | x8 | x8 | x6 BG- | G2 x4 E2 | E2 D2 BG/B/ E2 | %41
 [FA]2 [GB]2 x4 | x4 [EA][FA] x2 ||[M:6/4] x12 | [A^c]6 x6 | x10 A2 | G6- G6 | x12 | x12 | x12 | %50
 [A^c]6 x6 | x12 | G6- G6 | x12 | x12 | x12 | [Gd]6 x6 | [Fc]6 x6 | F6- F4 E2 | x12 | x12 | x12 | %62
 x12 | x12 | x12 | x12 | x12 |][M:4/4] x8 | x8 | x5/2 A3/2 A2 ^G2 | x8 | x8 | x5/2 A3/2 A3 ^F | %73
 G6 [FA][GB] | x8 | x8 | x8 | x8 | x5/2 G x/ G2 x2 | G2 G2 x4 | E4 D4 | x8 | AB G2 E2 F2- | %83
 x6 F2- | F2 E2 x4 | AB G2 E2 F2 | F6 F2- | F2 E2 x4 | x8 |][M:6/4] x12 | x12 | A4 G2 x6 | x12 | %93
 x12 | x12 | A8 x4 | [^FA]6 [GB]6 | [^FA]6 [GB]6 | x6 [GB]4 [^FA]2 | x12 | x12 | x12 | x12 | x12 | %104
 x12 | x12 | x12 | x12 | x12 |][M:2/2] x8 | x2 G2 x4 | x8 | x8 | x8 | x8 | x8 | x6 B2 | x2 A2 A4- | %118
 A4 G4- | G2 F2 x4 | x8 | x4 A4- | A4 G4 | x8 | x8 | x8 | x8 | x4 A4 | A4 G4- | G2 x6 | x8 | x8 | %132
 x8 |][M:6/4] x12 | A6 A4 G2 | x12 | x12 | A3 G F2 x6 | x6 e6 | e4 de f3 edc | x6 A4 [GA]2 | %141
 x4 FG x6 | x12 | x6 A4 AG | x12 | x12 | x6 A4 A2- | A4 ^G2 [EA]6 | x12 | E3 D C2 x2 [EA]4 | %150
 x6 F2 G4 | A4 D2 D4 [DE]2 | x12 | E2 G4 x6 | x12 | x6 A2 G4 | x12 | x12 | A3 G x4 A4 | x12 | x12 | %161
 x8 BcdB | x2 EF G2 x2 AB c2 | F2 G4 [EG]2 A4 | x2 [FB]4 x2 [Ac]4 | x8 ^FG A2 | x12 | %167
 x2 ^FGAB x2 [Ad]4 | x6 [Ad]2 x4 | [GB][Ac] [Bd]4 [Ad]2 [Ac]4 | x4 GA B2 A4 | x12 | x2 E4 x6 | %173
 x2 [EA]4 [FA]6 | x12 | A4 GF G4 FE | x12 | A6- A2 G4 | x12 | x12 | x2 d4 x6 | x6 A4 G2 | x12 | %183
 [^FA]8 x4 |] %184
V:7
 D,2 D4 ^C2 | D2 F,2 G,2 A,2 | B,2 F,2 G,2 A,2 | B,2 G,2 A,2 A,,2 | D,2 A2 G2 A2 | F4 z2 E2 | %6
 F2 A,2 B,2 C2 | F,2 z2 z4 | z2 B,2 A,2 B,2 | G,8- | G,8 | A,2 A,2 G,2 A,2 | F,2 D2 C2 D2 | (G,8 | %14
 G,2) F,G, A,2 A,,2 | D,2 D2 C2 D2 | G,8- | G,2 F,G, A,2 A,,2 ||[M:4/4] D,A,DE FE/D/ CE | %19
 D2 B,2 F,G, A,A,, | D,2 D2 A,B, CC, | F,G, A,A,, D,=C, B,,2 | A,,A,,/G,,/ F,,E,, D,,D, A,A, | %23
 B, A,/G,/ F,A, G,F,/E,/ D,2 | G,F,/E,/ D,2 G,C, D,2 | G,2 G,,2 C,2 A,,2 | B,,2 G,,2 C,2 A,,2 | %27
 B,,/F,/G,/A,/ B,/C/B,/A,/ G,F, CC, | F,2 F,2 G,2 E,2 | A,A, DE FE/D/ ^CD | %30
 D2 A,2 D,/A,/B,/C/ D/E/D/C/ | B,/B,/C/D/ E/F/E/D/ C/C,/D,/E,/ F,/E,/F,/D,/ | %32
 A,G,/F,/ E,2 A,2 F,D, | A,=G,/F,/ ^E,^G,, A,,D, ^E,2 | %34
 A,,A,,/=G,,/ F,,E,, D,,/E,/F,/G,/ A,/B,/A,/G,/ | F,A,DE FE/D/ ^CE | D2- D/D/C/B,/ A,B, C2 | %37
 F,/F,/G,/A,/ B,/C/B,/A,/ G,/E,/F,/G,/ A,/B,/A,/G,/ | F,D, A,B, CB,/A,/ G,B, | %39
 A,2 z/ D,/E,/F,/ G,2 z/ C,/D,/E,/ | F,/F,/G,/A,/ B,/C/!tenuto!B,/A,/ G,/A,/B,/G,/ A,A,, | %41
 D,2 G,,/G,/A,/B,/ C2 z/ F,/G,/A,/ | B,/C/B,/A,/ G,/A,/B,/G,/ A,D, A,,2 || %43
[M:6/4] D,4 D,2 A,3 B, A,2 | G,4 E,2 G,3 A, G,2 | F,4 D,2 F,3 G, F,2 | E,6 A,6 | D,6 D6 | C6 B,6 | %49
 A,4 D,2 A,3 B, A,2 | G,4 E,2 G,3 A, G,2 | F,4 D,2 F,3 G, F,2 | E,6 A,6 | D,6 D6 | C6 B,6 | %55
 A,6 F,6 | G,6 E,6 | F,6 F,,6 | B,,6 C,6 | F,,6 F,6 | B,6 E,6 | A,6 F,6 | G,6 A,6 | D,6 D6 | %64
 ^C6 =C6 | B,6 B,6 | A,4 D,2 A,,6 |][M:4/4] D,A,DD D2 ^C2 | D2 B,2 G,2 A,2 | D,2 z/ E/D/C/ =B,CDE | %70
 CE, A,A, (A,2 ^G,2) | A,2 F,2 G,2 A,2 | D,2 z/ D/C/B,/ A,B,CD | B,G, A,2 B,/B,/A,/G,/ F,B,, | %74
 C,G, CC C2 B,2 | C2 A,2 B,2 C2 | F2 A,2 B,2 C2 | F,2 E,2 F,2 G,2 | C2 z/ D/C/B,/ A,B,CD | %79
 B,G, B,C D4 | C4 B,4 | A,2 F,2 G,2 A,2 | D/C/B,/A,/ G,/F,/E,/D,/ C/B,/A,/G,/ F,/E,/D,/C,/ | %83
 B,,4 A,,4 | G,,2 ^G,,2 A,,D, A,2 | D/C/B,/A,/ G,/F,/E,/D,/ C/B,/A,/G,/ F,/E,/D,/C,/ | %86
 B,/A,/G,/F,/ E,/D,/C,/B,,/ A,/G,/F,/E,/ D,/C,/B,,/A,,/ | G,,2 ^G,,2 A,,D, A,,2 | !fermata!D,8 |] %89
[M:6/4] !fermata!A,12 | A,12- | A,12- | A,12 | D4 G,2 A,4 A,,2 | D,6 z6 | D12 | D,12 | D,12- | %98
 D,12 | G,4 C,2 D,4 G,2 | G,2 G,2 D,2 E,4 =B,,2 | C,2 C2 G,2 A,2 A,2 C2 | F,2 G,2 A,2 B,2 C2 C,2 | %103
 F,6 z2 F2 F,2 | z8 G2 G,2 | A,6 F,2 F2 F,2 | B,4 G,2 A,4 A,,2 | D,6 F,2 F2 F,2 | %108
 B,4 G,2 A,4 A,,2 |][M:2/2] D,4 D2 ^C2 | D2 G,A, B,2 G,2 | A,3 G, F,4 | G,2 A,2 B,2 G,2 | %113
 A,G,A,E, F,2 ^C,2 | D,2 G,A, B,2 G,2 | A,3 G, F,4 | G,2 A,2 B,2 G,2 | A,2 A,B, C4 | B,4 B,4 | %119
 A,4 G,4 | F,2 B,2 C2 C,2 | F,4 F,F,G,A, | B,4 E,E,F,G, | A,4 D,D,E,F, | G,4 ^G,4 | A,4 B,4 | %126
 A,2 G,2 A,2 A,,2 | D,^C,D,E, F,F,G,A, | B,4 E,E,F,G, | A,4 D,D,E,F, | G,4 ^G,4 | A,4 B,4 | %132
 A,2 G,2 A,2 A,,2 |][M:6/4] D,6 D6 | C6 B,6 | A,6 F,6 | G,6 A,6 | F,3 E, D,2[K:treble] z2 DEFG | %138
 A2 E2 A2 GFEFGE | FEFGF!tenuto!E DEDCB,A, |[K:bass] G,A,G,F,E,D, ^C,=B,,C,A,,B,,C, | %141
 D,4 D,E, F,6 | E,4 ^C,2 D,2 D,E,F,G, | A,4 A,,2 F,E,F,G,F,E, | D,C,D,E,D,E, C,=B,,C,D,C,B,, | %145
 A,,6 A,6 | G,6 F,6 | E,6 C,6 | D,6 E,6 | C,3 =B,, A,,2 z2 A,=B,^CA, | D2 A,2 D2 B,6 | %151
 A,B,A,G,^F,D, G,F,G,A,B,G, | D2 D,E,F,D, B,A,B,CB,A, | G,F,E,F,G,E, F,E,F,G,F,E, | D,6 D6 | %155
 C6 B,6 | A,6 F,6 | G,6 A,6 | F,3 E, D,2 z2 A,=B,^CA, | D2 D,E,F,G, A,2 E,2 A,2 | F,4 D,2 A,,6 | %161
 D,2 DEFD G2 G,A,B,G, | C2 C,D,E,C, F,2 F,G,A,F, | B,2 G,A,B,G, C2 A,B,CA, | D2 B,CDB, _E2 CDEC | %165
 D4 z2 ^F,2 D,E,F,G, | A,G,A,B,CA, B,A,B,CB,C | D2 D,E,^F,G, A,2 D2 D,2 | G,6 D2 ^F,4 | %169
 G,2 G,A,B,C D2 A,2 D2 | B,A,B,CB,A, G,4 ^F,2 | G,6 E,6 | A,2 A,=B,^CA, F6 | %173
 ^C2 A,=B,CA, D2 D,E,F,D, | A,6 G,6 | F,A,G,F,E,D, ^C,=B,,C,A,,B,,C, | D,6 D6 | C6 B,6 | A,6 F,6 | %179
 G,6 A,6 | D,2[K:treble] DEFG A2 E2 A2 | F4 D2 A,6 |[K:bass] D,4 B,,2 B,,6 | !fermata!D,12 |] %184
V:8
 x8 | x8 | x8 | x8 | x8 | x8 | x8 | x8 | x8 | x8 | E8 | x8 | x8 | x8 | x8 | x8 | x8 | x8 || %18
[M:4/4] x8 | x8 | x6 cB | x8 | x8 | x8 | x8 | x8 | x8 | x8 | x8 | x8 | x8 | x8 | x8 | x8 | x8 | %35
 x8 | x8 | x8 | x8 | x8 | x2 AG x4 | x8 | x8 ||[M:6/4] x12 | x12 | x12 | x12 | x12 | x12 | x12 | %50
 x12 | x12 | x12 | x12 | x12 | x12 | x12 | x12 | x12 | x12 | x12 | x12 | x12 | x12 | x12 | x12 | %66
 G4 x8 |][M:4/4] x8 | x8 | x8 | x8 | x8 | x8 | x8 | x8 | x8 | x8 | x8 | x8 | x8 | x8 | x8 | x8 | %83
 x8 | x8 | x8 | x8 | x8 | x8 |][M:6/4] x12 | x12 | x12 | x12 | x12 | x12 | x12 | x12 | x12 | x12 | %99
 x12 | x12 | x12 | x12 | x12 | x12 | x12 | x12 | x12 | x12 |][M:2/2] x8 | x2 Bc x4 | x8 | x8 | x8 | %114
 x8 | x8 | x8 | x8 | x8 | x8 | x8 | x8 | x8 | x8 | x8 | x8 | x8 | x8 | x8 | x8 | x8 | x8 | x8 |] %133
[M:6/4] x12 | x12 | x12 | x12 | x12 | x12 | x12 | x12 | x12 | x12 | x12 | x12 | x12 | x12 | x12 | %148
 x12 | x12 | x12 | x12 | x12 | x12 | x12 | x12 | x12 | x12 | x12 | x12 | x12 | x12 | x12 | x12 | %164
 x12 | x12 | x12 | x12 | x12 | x12 | x12 | x12 | x12 | x12 | x12 | x12 | x12 | x12 | x12 | x12 | %180
 x12 | x12 | x12 | x12 |] %184
V:9
 x8 | x8 | x8 | x8 | x8 | x8 | x8 | x8 | x8 | x8 | x8 | x8 | x8 | x8 | x8 | x8 | x8 | x8 || %18
[M:4/4] x8 | x8 | x8 | x8 | x8 | x8 | x8 | x8 | x8 | x8 | x8 | x8 | x8 | x8 | x8 | x8 | x8 | x8 | %36
 x8 | x8 | x8 | x8 | x8 | x8 | x8 ||[M:6/4] x12 | x12 | x12 | x12 | x12 | x12 | x12 | x12 | x12 | %52
 x12 | x12 | x12 | x12 | x12 | x12 | x12 | x12 | x12 | x12 | x12 | x12 | x12 | x12 | x12 |] %67
[M:4/4] x8 | x8 | x8 | x8 | x8 | x8 | x8 | x8 | x8 | x8 | x8 | x8 | x8 | x8 | x8 | D,4 C,4 | x8 | %84
 x8 | D,4 C,4 | B,,4 A,,4 | x8 | x8 |][M:6/4] x12 | x12 | x12 | x12 | x12 | x12 | x12 | x12 | x12 | %98
 x12 | x12 | x12 | x12 | x12 | x12 | x12 | x12 | x12 | x12 | x12 |][M:2/2] x8 | x8 | x8 | x8 | x8 | %114
 x8 | x8 | x8 | x8 | x8 | x8 | x8 | x8 | x8 | x8 | x8 | x8 | x8 | x8 | x8 | x8 | x8 | x8 | x8 |] %133
[M:6/4] x12 | x12 | x12 | x12 | x6[K:treble] x6 | x12 | x12 |[K:bass] x12 | x12 | x12 | x12 | x12 | %145
 x12 | x12 | x12 | x12 | x12 | x12 | x12 | x12 | x12 | x12 | x12 | x12 | x12 | x12 | x12 | x12 | %161
 x12 | x12 | x12 | x12 | x12 | x12 | x12 | x12 | x12 | x12 | x12 | x12 | x12 | x12 | x12 | x12 | %177
 x12 | x12 | x12 | x2[K:treble] x10 | x12 |[K:bass] x12 | x12 |] %184

